X: 529
M: 3/2
L: 1/8
K: Bb
[|\
g3f gaba f2d2 | e2c2 baga f4 | _a3g fg_a2 c2f2 | f6 =e2 f2 |]
[|\
c3B ABc2 f2c2 | d2b2 abag ^f4 | gag2 aba2 g2ba | g6 ^f2 g4 |\
b2 f4 d2 c2B2 | g2d2 cdcB A2F2 | B3c def2 gfed | c6 B2 B4 |]

